images/icon-googleplus.svg

<svg height="16" viewBox="0 0 19 16" width="19" xmlns="http://www.w3.org/2000/svg"><path d="m7.69442587 6.67048331v2.61105524h4.31638673c-.1733729 1.12094525-1.3032858 3.28362235-4.31638673 3.28362235-2.5961093 0-4.71693779-2.1537095-4.71693779-4.80661336s2.12082849-4.80661342 4.71693779-4.80661342c1.48114238 0 2.46607963.63071856 3.03103603 1.17176148l2.064034-1.98930424c-1.3271992-1.23752361-3.04448744-1.98930425-5.09507003-1.98930425-4.20877593.00448378-7.60897665 3.4046845-7.60897665 7.61346043 0 4.20877586 3.40020072 7.60897666 7.60897665 7.60897666 4.38962173 0 7.30557413-3.0878307 7.30557413-7.43560378 0-.49919431-.0553-.8833049-.1210621-1.26143711h-7.18301743zm10.43649443-3.84357247h-1.6818237v-1.68182373h-1.6818237v1.68182373h-1.6818237v1.68182373h1.6818237v1.68182374h1.6818237v-1.68182374h1.6818237z" fill-rule="evenodd"/></svg>

<?xml version="1.0" encoding="UTF-8" standalone="no"?>
<svg width="19px" height="16px" viewBox="0 0 19 16" version="1.1" xmlns="http://www.w3.org/2000/svg" xmlns:xlink="http://www.w3.org/1999/xlink">
    <!-- Generator: Sketch 43.1 (39012) - http://www.bohemiancoding.com/sketch -->
    <title>icon-googleplus</title>
    <desc>Created with Sketch.</desc>
    <defs></defs>
    <g id="Page-1" stroke="none" stroke-width="1" fill="none" fill-rule="evenodd">
        <path d="M7.69442587,6.67048331 L7.69442587,9.28153855 L12.0108126,9.28153855 C11.8374397,10.4024838 10.7075268,12.5651609 7.69442587,12.5651609 C5.09831657,12.5651609 2.97748808,10.4114514 2.97748808,7.75854754 C2.97748808,5.10564368 5.09831657,2.95193412 7.69442587,2.95193412 C9.17556825,2.95193412 10.1605055,3.58265268 10.7254619,4.1236956 L12.7894959,2.13439136 C11.4622967,0.89686775 9.74500846,0.145087108 7.69442587,0.145087108 C3.48564994,0.149570889 0.0854492188,3.54977161 0.0854492188,7.75854754 C0.0854492188,11.9673234 3.48564994,15.3675242 7.69442587,15.3675242 C12.0840476,15.3675242 15,12.2796935 15,7.93192042 C15,7.43272611 14.9447,7.04861552 14.8789379,6.67048331 L7.69592047,6.67048331 L7.69442587,6.67048331 Z M18.1309203,2.82691084 L16.4490966,2.82691084 L16.4490966,1.14508711 L14.7672729,1.14508711 L14.7672729,2.82691084 L13.0854492,2.82691084 L13.0854492,4.50873457 L14.7672729,4.50873457 L14.7672729,6.19055831 L16.4490966,6.19055831 L16.4490966,4.50873457 L18.1309203,4.50873457 L18.1309203,2.82691084 Z" id="icon-googleplus" fill="#000000"></path>
    </g>
</svg>
